src/assets/dark/rotate.svg

<svg height="16" viewBox="0 0 16 16" width="16" xmlns="http://www.w3.org/2000/svg"><path d="m8.99 2.08c2.66016.44491743 4.6968503 2.60962774 4.9789782 5.29194145.2373312 2.25641138-.8159877 4.41288705-2.6502646 5.62934925l2.6812864-.0012907v1h-3.5l-.5-.5v-3.5h1l.000815 1.9996298c1.5423118-1.1566278 2.2939794-3.11298662 1.8924967-5.0267277-.4179347-1.99216273-1.9986679-3.52441292-3.98587644-3.89100271l-.22243526-.03589939zm-3.49-.08.5.5v3.5h-1l-.0002694-2.00068918c-1.54927003 1.16146825-2.29810137 3.12624541-1.89018613 5.04198272.43394495 2.03798346 2.08602787 3.59334726 4.14645553 3.90370646l-.304.964c-2.8647204-.5090085-4.95178576-2.9994102-4.952-5.909 0-2.0864375 1.06479488-3.92412344 2.68146843-4.99899284l-2.68146843-.00100716v-1z" fill="#c5c5c5" fill-rule="evenodd"/></svg>

<?xml version="1.0" encoding="UTF-8"?>
<svg width="16px" height="16px" viewBox="0 0 16 16" version="1.1" xmlns="http://www.w3.org/2000/svg" xmlns:xlink="http://www.w3.org/1999/xlink">
    <title>Artboard</title>
    <g stroke="none" stroke-width="1" fill="none" fill-rule="evenodd">
        <path d="M8.99,2.08 C11.65016,2.52491743 13.6868503,4.68962774 13.9689782,7.37194145 C14.2063094,9.62835283 13.1529905,11.7848285 11.3187136,13.0012907 L14,13 L14,14 L10.5,14 L10,13.5 L10,10 L11,10 L11.000815,11.9996298 C12.5431268,10.843002 13.2947944,8.88664318 12.8933117,6.9729021 C12.475377,4.98073937 10.8946438,3.44848918 8.90743526,3.08189939 L8.685,3.046 L8.99,2.08 Z M5.5,2 L6,2.5 L6,6 L5,6 L4.9997306,3.99931082 C3.45046057,5.16077907 2.70162923,7.12555623 3.10954447,9.04129354 C3.54348942,11.079277 5.19557234,12.6346408 7.256,12.945 L6.952,13.909 C4.0872796,13.3999915 2.00021424,10.9095898 2,8 C2,5.9135625 3.06479488,4.07587656 4.68146843,3.00100716 L2,3 L2,2 L5.5,2 Z" fill="#C5C5C5"></path>
    </g>
</svg>
